public/luts/classic-negative.cube
# WISHES Classic Negative LUT (33x33x33)
# Generated for wishes.co.kr — 자체 작성, 상업 이용 자유
# Based on user-specified Fujifilm preset parameters
LUT_3D_SIZE 5
DOMAIN_MIN 0.0 0.0 0.0
DOMAIN_MAX 1.0 1.0 1.0
0.039616 0.039616 0.039616
0.287133 0.039616 0.039616
0.498054 0.039616 0.039616
0.708629 0.039616 0.039616
0.876191 0.039616 0.039616
0.044750 0.267985 0.039616
0.291259 0.267985 0.039616
0.501844 0.267985 0.039616
0.712756 0.267985 0.039616
0.876191 0.267985 0.039616
0.049859 0.463143 0.039616
0.295374 0.463143 0.039616
0.505635 0.463143 0.039616
0.716895 0.463143 0.039616
0.876191 0.463143 0.039616
0.054943 0.652843 0.039616
0.299476 0.652843 0.039616
0.509427 0.652843 0.039616
0.721046 0.652843 0.039616
0.876191 0.652843 0.039616
0.039616 0.876191 0.039616
0.287133 0.876191 0.039616
0.498054 0.876191 0.039616
0.708629 0.876191 0.039616
0.876191 0.876191 0.039616
0.039616 0.039616 0.263785
0.287133 0.039616 0.245138
0.498054 0.039616 0.245138
0.708629 0.039616 0.245138
0.876191 0.039616 0.245138
0.039616 0.267985 0.244661
0.298455 0.270216 0.242392
0.506946 0.224247 0.195879
0.716649 0.179827 0.150497
0.879349 0.148898 0.118786
0.039616 0.463143 0.240294
0.266270 0.468548 0.204434
0.510709 0.459954 0.195041
0.720769 0.420214 0.149648
0.879349 0.394325 0.118786
0.039616 0.652843 0.235910
0.231708 0.657026 0.163008
0.486847 0.657026 0.163008
0.724902 0.644089 0.148799
0.879349 0.617969 0.118786
0.039616 0.876191 0.245138
0.173907 0.879349 0.118786
0.436246 0.879349 0.118786
0.682805 0.879349 0.118786
0.879349 0.879349 0.118786
0.039616 0.039616 0.455535
0.287133 0.039616 0.455535
0.498054 0.039616 0.421906
0.708629 0.039616 0.421906
0.876191 0.039616 0.421906
0.039616 0.265909 0.455535
0.263411 0.234790 0.462013
0.507953 0.224657 0.412157
0.717750 0.180040 0.371713
0.880616 0.149035 0.344486
0.039616 0.463143 0.421049
0.267480 0.470789 0.421171
0.518914 0.467190 0.416969
0.729793 0.424623 0.374345
0.889715 0.397704 0.347045
0.039616 0.652843 0.417127
0.232463 0.659573 0.383412
0.492620 0.665663 0.386503
0.733955 0.651628 0.373581
0.889715 0.623836 0.347045
0.039616 0.876191 0.421906
0.174217 0.881696 0.344791
0.440026 0.889715 0.347045
0.689612 0.889715 0.347045
0.889715 0.889715 0.347045
0.039616 0.039616 0.640967
0.287133 0.039616 0.640967
0.498054 0.039616 0.640967
0.708629 0.039616 0.589531
0.876191 0.039616 0.589531
0.039616 0.265196 0.640967
0.224127 0.194783 0.646261
0.480723 0.194783 0.646261
0.717750 0.180040 0.571684
0.880616 0.149035 0.544805
0.039616 0.460679 0.640967
0.229676 0.435258 0.647546
0.491816 0.440267 0.655899
0.732018 0.425704 0.578115
0.892274 0.398532 0.550345
0.039616 0.652843 0.588241
0.232463 0.659573 0.583974
0.495638 0.670196 0.592884
0.743072 0.659200 0.582113
0.900182 0.629719 0.554071
0.039616 0.876191 0.589531
0.174217 0.881696 0.545321
0.441742 0.894460 0.551377
0.696451 0.900182 0.554071
0.900182 0.900182 0.554071
0.039616 0.039616 0.846185
0.287133 0.039616 0.846185
0.498054 0.039616 0.846185
0.708629 0.039616 0.846185
0.876191 0.039616 0.767623
0.039616 0.264842 0.846185
0.184714 0.154441 0.850711
0.445800 0.154441 0.850711
0.693413 0.154441 0.850711
0.880616 0.149035 0.752517
0.039616 0.459380 0.846185
0.190269 0.399882 0.852219
0.454858 0.403317 0.862048
0.706420 0.403317 0.862048
0.892274 0.398532 0.761435
0.039616 0.650007 0.846185
0.195609 0.624485 0.852448
0.460561 0.632012 0.864867
0.719673 0.637214 0.873506
0.904062 0.631890 0.770419
0.039616 0.876191 0.767623
0.174217 0.881696 0.753345
0.441742 0.894460 0.763103
0.701133 0.907378 0.772941
0.910753 0.910753 0.775505
