public/luts/classic-negative.cube
# WISHES Classic Negative LUT (33x33x33)
# Generated for wishes.co.kr — 자체 작성, 상업 이용 자유
# Based on user-specified Fujifilm preset parameters
LUT_3D_SIZE 33
DOMAIN_MIN 0.0 0.0 0.0
DOMAIN_MAX 1.0 1.0 1.0
0.039616 0.039616 0.039616
0.073796 0.039616 0.039616
0.106908 0.039616 0.039616
0.139024 0.039616 0.039616
0.170215 0.039616 0.039616
0.200550 0.039616 0.039616
0.230101 0.039616 0.039616
0.258938 0.039616 0.039616
0.287133 0.039616 0.039616
0.314756 0.039616 0.039616
0.341878 0.039616 0.039616
0.368570 0.039616 0.039616
0.394902 0.039616 0.039616
0.420946 0.039616 0.039616
0.446772 0.039616 0.039616
0.472451 0.039616 0.039616
0.498054 0.039616 0.039616
0.523651 0.039616 0.039616
0.549314 0.039616 0.039616
0.575113 0.039616 0.039616
0.601119 0.039616 0.039616
0.627403 0.039616 0.039616
0.654035 0.039616 0.039616
0.681087 0.039616 0.039616
0.708629 0.039616 0.039616
0.736733 0.039616 0.039616
0.765468 0.039616 0.039616
0.794906 0.039616 0.039616
0.825117 0.039616 0.039616
0.856172 0.039616 0.039616
0.876191 0.039616 0.039616
0.876191 0.039616 0.039616
0.876191 0.039616 0.039616
0.039616 0.071301 0.039616
0.073796 0.071301 0.039616
0.106908 0.071301 0.039616
0.139024 0.071301 0.039616
0.170215 0.071301 0.039616
0.200550 0.071301 0.039616
0.230101 0.071301 0.039616
0.258938 0.071301 0.039616
0.287133 0.071301 0.039616
0.314756 0.071301 0.039616
0.341878 0.071301 0.039616
0.368570 0.071301 0.039616
0.394902 0.071301 0.039616
0.420946 0.071301 0.039616
0.446772 0.071301 0.039616
0.472451 0.071301 0.039616
0.498054 0.071301 0.039616
0.523651 0.071301 0.039616
0.549314 0.071301 0.039616
0.575113 0.071301 0.039616
0.601119 0.071301 0.039616
0.627403 0.071301 0.039616
0.654035 0.071301 0.039616
0.681087 0.071301 0.039616
0.708629 0.071301 0.039616
0.736733 0.071301 0.039616
0.765468 0.071301 0.039616
0.794906 0.071301 0.039616
0.825117 0.071301 0.039616
0.856172 0.071301 0.039616
0.876191 0.071301 0.039616
0.876191 0.071301 0.039616
0.876191 0.071301 0.039616
0.039616 0.102067 0.039616
0.073796 0.102067 0.039616
0.106908 0.102067 0.039616
0.139024 0.102067 0.039616
0.170215 0.102067 0.039616
0.200550 0.102067 0.039616
0.230101 0.102067 0.039616
0.258938 0.102067 0.039616
0.287133 0.102067 0.039616
0.314756 0.102067 0.039616
0.341878 0.102067 0.039616
0.368570 0.102067 0.039616
0.394902 0.102067 0.039616
0.420946 0.102067 0.039616
0.446772 0.102067 0.039616
0.472451 0.102067 0.039616
0.498054 0.102067 0.039616
0.523651 0.102067 0.039616
0.549314 0.102067 0.039616
0.575113 0.102067 0.039616
0.601119 0.102067 0.039616
0.627403 0.102067 0.039616
0.654035 0.102067 0.039616
0.681087 0.102067 0.039616
0.708629 0.102067 0.039616
0.736733 0.102067 0.039616
0.765468 0.102067 0.039616
0.794906 0.102067 0.039616
0.825117 0.102067 0.039616
0.856172 0.102067 0.039616
0.876191 0.102067 0.039616
0.876191 0.102067 0.039616
0.876191 0.102067 0.039616
0.039616 0.131970 0.039616
0.073796 0.131970 0.039616
0.106908 0.131970 0.039616
0.139024 0.131970 0.039616
0.170215 0.131970 0.039616
0.200550 0.131970 0.039616
0.230101 0.131970 0.039616
0.258938 0.131970 0.039616
0.287133 0.131970 0.039616
0.314756 0.131970 0.039616
0.341878 0.131970 0.039616
0.368570 0.131970 0.039616
0.394902 0.131970 0.039616
0.420946 0.131970 0.039616
0.446772 0.131970 0.039616
0.472451 0.131970 0.039616
0.498054 0.131970 0.039616
0.523651 0.131970 0.039616
0.549314 0.131970 0.039616
0.575113 0.131970 0.039616
0.601119 0.131970 0.039616
0.627403 0.131970 0.039616
0.654035 0.131970 0.039616
0.681087 0.131970 0.039616
0.708629 0.131970 0.039616
0.736733 0.131970 0.039616
0.765468 0.131970 0.039616
0.794906 0.131970 0.039616
0.825117 0.131970 0.039616
0.856172 0.131970 0.039616
0.876191 0.131970 0.039616
0.876191 0.131970 0.039616
0.876191 0.131970 0.039616
0.039616 0.161065 0.039616
0.073796 0.161065 0.039616
0.106908 0.161065 0.039616
0.139024 0.161065 0.039616
0.170215 0.161065 0.039616
0.200550 0.161065 0.039616
0.230101 0.161065 0.039616
0.258938 0.161065 0.039616
0.287133 0.161065 0.039616
0.314756 0.161065 0.039616
0.341878 0.161065 0.039616
0.368570 0.161065 0.039616
0.394902 0.161065 0.039616
0.420946 0.161065 0.039616
0.446772 0.161065 0.039616
0.472451 0.161065 0.039616
0.498054 0.161065 0.039616
0.523651 0.161065 0.039616
0.549314 0.161065 0.039616
0.575113 0.161065 0.039616
0.601119 0.161065 0.039616
0.627403 0.161065 0.039616
0.654035 0.161065 0.039616
0.681087 0.161065 0.039616
0.708629 0.161065 0.039616
0.736733 0.161065 0.039616
0.765468 0.161065 0.039616
0.794906 0.161065 0.039616
0.825117 0.161065 0.039616
0.856172 0.161065 0.039616
0.876191 0.161065 0.039616
0.876191 0.161065 0.039616
0.876191 0.161065 0.039616
0.039616 0.189410 0.039616
0.073796 0.189410 0.039616
0.106908 0.189410 0.039616
0.139024 0.189410 0.039616
0.170215 0.189410 0.039616
0.200550 0.189410 0.039616
0.230101 0.189410 0.039616
0.258938 0.189410 0.039616
0.287133 0.189410 0.039616
0.314756 0.189410 0.039616
0.341878 0.189410 0.039616
0.368570 0.189410 0.039616
0.394902 0.189410 0.039616
0.420946 0.189410 0.039616
0.446772 0.189410 0.039616
0.472451 0.189410 0.039616
0.498054 0.189410 0.039616
0.523651 0.189410 0.039616
0.549314 0.189410 0.039616
0.575113 0.189410 0.039616
0.601119 0.189410 0.039616
0.627403 0.189410 0.039616
0.654035 0.189410 0.039616
0.681087 0.189410 0.039616
0.708629 0.189410 0.039616
0.736733 0.189410 0.039616
0.765468 0.189410 0.039616
0.794906 0.189410 0.039616
0.825117 0.189410 0.039616
0.856172 0.189410 0.039616
0.876191 0.189410 0.039616
0.876191 0.189410 0.039616
0.876191 0.189410 0.039616
0.039616 0.217059 0.039616
0.073796 0.217059 0.039616
0.106908 0.217059 0.039616
0.139024 0.217059 0.039616
0.170215 0.217059 0.039616
0.200550 0.217059 0.039616
0.230101 0.217059 0.039616
0.258938 0.217059 0.039616
0.287133 0.217059 0.039616
0.314756 0.217059 0.039616
0.341878 0.217059 0.039616
0.368570 0.217059 0.039616
0.394902 0.217059 0.039616
0.420946 0.217059 0.039616
0.446772 0.217059 0.039616
0.472451 0.217059 0.039616
0.498054 0.217059 0.039616
0.523651 0.217059 0.039616
0.549314 0.217059 0.039616
0.575113 0.217059 0.039616
0.601119 0.217059 0.039616
0.627403 0.217059 0.039616
0.654035 0.217059 0.039616
0.681087 0.217059 0.039616
0.708629 0.217059 0.039616
0.736733 0.217059 0.039616
0.765468 0.217059 0.039616
0.794906 0.217059 0.039616
0.825117 0.217059 0.039616
0.856172 0.217059 0.039616
0.876191 0.217059 0.039616
0.876191 0.217059 0.039616
0.876191 0.217059 0.039616
0.044109 0.241824 0.039616
0.078147 0.241824 0.039616
0.111126 0.241824 0.039616
0.143118 0.241824 0.039616
0.174194 0.241824 0.039616
0.204423 0.241824 0.039616
0.233877 0.241824 0.039616
0.262628 0.241824 0.039616
0.290744 0.241824 0.039616
0.318298 0.241824 0.039616
0.345361 0.241824 0.039616
0.372002 0.241824 0.039616
0.398293 0.241824 0.039616
0.424304 0.241824 0.039616
0.450107 0.241824 0.039616
0.475772 0.241824 0.039616
0.501370 0.241824 0.039616
0.526972 0.241824 0.039616
0.552649 0.241824 0.039616
0.578471 0.241824 0.039616
0.604509 0.241824 0.039616
0.630834 0.241824 0.039616
0.657517 0.241824 0.039616
0.684628 0.241824 0.039616
0.712239 0.241824 0.039616
0.740421 0.241824 0.039616
0.769243 0.241824 0.039616
0.798777 0.241824 0.039616
0.829093 0.241824 0.039616
0.860264 0.241824 0.039616
0.876191 0.241824 0.039616
0.876191 0.241824 0.039616
0.876191 0.241824 0.039616
0.044750 0.267985 0.039616
0.078767 0.267985 0.039616
0.111728 0.267985 0.039616
0.143702 0.267985 0.039616
0.174761 0.267985 0.039616
0.204975 0.267985 0.039616
0.234416 0.267985 0.039616
0.263154 0.267985 0.039616
0.291259 0.267985 0.039616
0.318804 0.267985 0.039616
0.345858 0.267985 0.039616
0.372492 0.267985 0.039616
0.398777 0.267985 0.039616
0.424784 0.267985 0.039616
0.450584 0.267985 0.039616
0.476247 0.267985 0.039616
0.501844 0.267985 0.039616
0.527447 0.267985 0.039616
0.553126 0.267985 0.039616
0.578951 0.267985 0.039616
0.604994 0.267985 0.039616
0.631325 0.267985 0.039616
0.658015 0.267985 0.039616
0.685135 0.267985 0.039616
0.712756 0.267985 0.039616
0.740948 0.267985 0.039616
0.769783 0.267985 0.039616
0.799331 0.267985 0.039616
0.829663 0.267985 0.039616
0.860849 0.267985 0.039616
0.876191 0.267985 0.039616
0.876191 0.267985 0.039616
0.876191 0.267985 0.039616
0.045390 0.293627 0.039616
0.079387 0.293627 0.039616
0.112328 0.293627 0.039616
0.144285 0.293627 0.039616
0.175328 0.293627 0.039616
0.205527 0.293627 0.039616
0.234954 0.293627 0.039616
0.263680 0.293627 0.039616
0.291774 0.293627 0.039616
0.319309 0.293627 0.039616
0.346354 0.293627 0.039616
0.372981 0.293627 0.039616
0.399261 0.293627 0.039616
0.425263 0.293627 0.039616
0.451060 0.293627 0.039616
0.476721 0.293627 0.039616
0.502318 0.293627 0.039616
0.527922 0.293627 0.039616
0.553602 0.293627 0.039616
0.579431 0.293627 0.039616
0.605478 0.293627 0.039616
0.631815 0.293627 0.039616
0.658513 0.293627 0.039616
0.685642 0.293627 0.039616
0.713272 0.293627 0.039616
0.741476 0.293627 0.039616
0.770323 0.293627 0.039616
0.799885 0.293627 0.039616
0.830232 0.293627 0.039616
0.861435 0.293627 0.039616
0.876191 0.293627 0.039616
0.876191 0.293627 0.039616
0.876191 0.293627 0.039616
0.046029 0.318804 0.039616
0.080006 0.318804 0.039616
0.112929 0.318804 0.039616
0.144868 0.318804 0.039616
0.175895 0.318804 0.039616
0.206079 0.318804 0.039616
0.235493 0.318804 0.039616
0.264206 0.318804 0.039616
0.292289 0.318804 0.039616
0.319814 0.318804 0.039616
0.346851 0.318804 0.039616
0.373471 0.318804 0.039616
0.399745 0.318804 0.039616
0.425743 0.318804 0.039616
0.451536 0.318804 0.039616
0.477196 0.318804 0.039616
0.502792 0.318804 0.039616
0.528396 0.318804 0.039616
0.554079 0.318804 0.039616
0.579911 0.318804 0.039616
0.605963 0.318804 0.039616
0.632306 0.318804 0.039616
0.659011 0.318804 0.039616
0.686149 0.318804 0.039616
0.713789 0.318804 0.039616
0.742004 0.318804 0.039616
0.770864 0.318804 0.039616
0.800440 0.318804 0.039616
0.830802 0.318804 0.039616
0.862022 0.318804 0.039616
0.876191 0.318804 0.039616
0.876191 0.318804 0.039616
0.876191 0.318804 0.039616
0.046668 0.343570 0.039616
0.080625 0.343570 0.039616
0.113529 0.343570 0.039616
0.145451 0.343570 0.039616
0.176461 0.343570 0.039616
0.206631 0.343570 0.039616
0.236030 0.343570 0.039616
0.264731 0.343570 0.039616
0.292804 0.343570 0.039616
0.320319 0.343570 0.039616
0.347348 0.343570 0.039616
0.373960 0.343570 0.039616
0.400228 0.343570 0.039616
0.426222 0.343570 0.039616
0.452012 0.343570 0.039616
0.477670 0.343570 0.039616
0.503266 0.343570 0.039616
0.528871 0.343570 0.039616
0.554556 0.343570 0.039616
0.580391 0.343570 0.039616
0.606448 0.343570 0.039616
0.632797 0.343570 0.039616
0.659510 0.343570 0.039616
0.686656 0.343570 0.039616
0.714306 0.343570 0.039616
0.742533 0.343570 0.039616
0.771405 0.343570 0.039616
0.800995 0.343570 0.039616
0.831372 0.343570 0.039616
0.862608 0.343570 0.039616
0.876191 0.343570 0.039616
0.876191 0.343570 0.039616
0.876191 0.343570 0.039616
0.047307 0.367981 0.039616
0.081244 0.367981 0.039616
0.114129 0.367981 0.039616
0.146033 0.367981 0.039616
0.177027 0.367981 0.039616
0.207182 0.367981 0.039616
0.236568 0.367981 0.039616
0.265257 0.367981 0.039616
0.293318 0.367981 0.039616
0.320824 0.367981 0.039616
0.347844 0.367981 0.039616
0.374450 0.367981 0.039616
0.400712 0.367981 0.039616
0.426701 0.367981 0.039616
0.452488 0.367981 0.039616
0.478144 0.367981 0.039616
0.503740 0.367981 0.039616
0.529346 0.367981 0.039616
0.555033 0.367981 0.039616
0.580872 0.367981 0.039616
0.606933 0.367981 0.039616
0.633288 0.367981 0.039616
0.660008 0.367981 0.039616
0.687163 0.367981 0.039616
0.714824 0.367981 0.039616
0.743061 0.367981 0.039616
0.771946 0.367981 0.039616
0.801550 0.367981 0.039616
0.831943 0.367981 0.039616
0.863195 0.367981 0.039616
0.876191 0.367981 0.039616
0.876191 0.367981 0.039616
0.876191 0.367981 0.039616
0.047946 0.392089 0.039616
0.081862 0.392089 0.039616
0.114728 0.392089 0.039616
0.146615 0.392089 0.039616
0.177593 0.392089 0.039616
0.207733 0.392089 0.039616
0.237105 0.392089 0.039616
0.265782 0.392089 0.039616
0.293832 0.392089 0.039616
0.321328 0.392089 0.039616
0.348340 0.392089 0.039616
0.374939 0.392089 0.039616
0.401195 0.392089 0.039616
0.427180 0.392089 0.039616
0.452964 0.392089 0.039616
0.478619 0.392089 0.039616
0.504214 0.392089 0.039616
0.529820 0.392089 0.039616
0.555509 0.392089 0.039616
0.581352 0.392089 0.039616
0.607418 0.392089 0.039616
0.633780 0.392089 0.039616
0.660507 0.392089 0.039616
0.687670 0.392089 0.039616
0.715341 0.392089 0.039616
0.743590 0.392089 0.039616
0.772488 0.392089 0.039616
0.802105 0.392089 0.039616
0.832513 0.392089 0.039616
0.863783 0.392089 0.039616
0.876191 0.392089 0.039616
0.876191 0.392089 0.039616
0.876191 0.392089 0.039616
0.048584 0.415949 0.039616
0.082480 0.415949 0.039616
0.115328 0.415949 0.039616
0.147197 0.415949 0.039616
0.178158 0.415949 0.039616
0.208283 0.415949 0.039616
0.237643 0.415949 0.039616
0.266307 0.415949 0.039616
0.294346 0.415949 0.039616
0.321833 0.415949 0.039616
0.348836 0.415949 0.039616
0.375428 0.415949 0.039616
0.401679 0.415949 0.039616
0.427659 0.415949 0.039616
0.453441 0.415949 0.039616
0.479093 0.415949 0.039616
0.504688 0.415949 0.039616
0.530295 0.415949 0.039616
0.555986 0.415949 0.039616
0.581832 0.415949 0.039616
0.607904 0.415949 0.039616
0.634271 0.415949 0.039616
0.661006 0.415949 0.039616
0.688178 0.415949 0.039616
0.715859 0.415949 0.039616
0.744119 0.415949 0.039616
0.773030 0.415949 0.039616
0.802661 0.415949 0.039616
0.833084 0.415949 0.039616
0.864370 0.415949 0.039616
0.876191 0.415949 0.039616
0.876191 0.415949 0.039616
0.876191 0.415949 0.039616
0.049221 0.439616 0.039616
0.083098 0.439616 0.039616
0.115926 0.439616 0.039616
0.147778 0.439616 0.039616
0.178724 0.439616 0.039616
0.208834 0.439616 0.039616
0.238179 0.439616 0.039616
0.266831 0.439616 0.039616
0.294860 0.439616 0.039616
0.322337 0.439616 0.039616
0.349332 0.439616 0.039616
0.375917 0.439616 0.039616
0.402162 0.439616 0.039616
0.428138 0.439616 0.039616
0.453916 0.439616 0.039616
0.479567 0.439616 0.039616
0.505161 0.439616 0.039616
0.530770 0.439616 0.039616
0.556463 0.439616 0.039616
0.582313 0.439616 0.039616
0.608389 0.439616 0.039616
0.634763 0.439616 0.039616
0.661505 0.439616 0.039616
0.688686 0.439616 0.039616
0.716377 0.439616 0.039616
0.744648 0.439616 0.039616
0.773572 0.439616 0.039616
0.803217 0.439616 0.039616
0.833656 0.439616 0.039616
0.864958 0.439616 0.039616
0.876191 0.439616 0.039616
0.876191 0.439616 0.039616
0.876191 0.439616 0.039616
0.049859 0.463143 0.039616
0.083715 0.463143 0.039616
0.116525 0.463143 0.039616
0.148359 0.463143 0.039616
0.179289 0.463143 0.039616
0.209384 0.463143 0.039616
0.238716 0.463143 0.039616
0.267356 0.463143 0.039616
0.295374 0.463143 0.039616
0.322841 0.463143 0.039616
0.349828 0.463143 0.039616
0.376406 0.463143 0.039616
0.402646 0.463143 0.039616
0.428617 0.463143 0.039616
0.454392 0.463143 0.039616
0.480041 0.463143 0.039616
0.505635 0.463143 0.039616
0.531245 0.463143 0.039616
0.556941 0.463143 0.039616
0.582794 0.463143 0.039616
0.608875 0.463143 0.039616
0.635254 0.463143 0.039616
0.662004 0.463143 0.039616
0.689194 0.463143 0.039616
0.716895 0.463143 0.039616
0.745178 0.463143 0.039616
0.774114 0.463143 0.039616
0.803773 0.463143 0.039616
0.834227 0.463143 0.039616
0.865547 0.463143 0.039616
0.876191 0.463143 0.039616
0.876191 0.463143 0.039616
0.876191 0.463143 0.039616
0.050496 0.486585 0.039616
0.084332 0.486585 0.039616
0.117123 0.486585 0.039616
0.148940 0.486585 0.039616
0.179853 0.486585 0.039616
0.209934 0.486585 0.039616
0.239253 0.486585 0.039616
0.267880 0.486585 0.039616
0.295887 0.486585 0.039616
0.323345 0.486585 0.039616
0.350324 0.486585 0.039616
0.376895 0.486585 0.039616
0.403129 0.486585 0.039616
0.429096 0.486585 0.039616
0.454868 0.486585 0.039616
0.480516 0.486585 0.039616
0.506109 0.486585 0.039616
0.531720 0.486585 0.039616
0.557418 0.486585 0.039616
0.583274 0.486585 0.039616
0.609360 0.486585 0.039616
0.635746 0.486585 0.039616
0.662503 0.486585 0.039616
0.689702 0.486585 0.039616
0.717413 0.486585 0.039616
0.745708 0.486585 0.039616
0.774656 0.486585 0.039616
0.804330 0.486585 0.039616
0.834799 0.486585 0.039616
0.866135 0.486585 0.039616
0.876191 0.486585 0.039616
0.876191 0.486585 0.039616
0.876191 0.486585 0.039616
0.051132 0.509995 0.039616
0.084948 0.509995 0.039616
0.117721 0.509995 0.039616
0.149520 0.509995 0.039616
0.180418 0.509995 0.039616
0.210484 0.509995 0.039616
0.239789 0.509995 0.039616
0.268404 0.509995 0.039616
0.296401 0.509995 0.039616
0.323849 0.509995 0.039616
0.350819 0.509995 0.039616
0.377383 0.509995 0.039616
0.403612 0.509995 0.039616
0.429575 0.509995 0.039616
0.455344 0.509995 0.039616
0.480990 0.509995 0.039616
0.506583 0.509995 0.039616
0.532194 0.509995 0.039616
0.557895 0.509995 0.039616
0.583755 0.509995 0.039616
0.609846 0.509995 0.039616
0.636238 0.509995 0.039616
0.663003 0.509995 0.039616
0.690210 0.509995 0.039616
0.717931 0.509995 0.039616
0.746237 0.509995 0.039616
0.775199 0.509995 0.039616
0.804887 0.509995 0.039616
0.835371 0.509995 0.039616
0.866724 0.509995 0.039616
0.876191 0.509995 0.039616
0.876191 0.509995 0.039616
0.876191 0.509995 0.039616
0.051768 0.533429 0.039616
0.085565 0.533429 0.039616
0.118318 0.533429 0.039616
0.150101 0.533429 0.039616
0.180982 0.533429 0.039616
0.211033 0.533429 0.039616
0.240325 0.533429 0.039616
0.268928 0.533429 0.039616
0.296914 0.533429 0.039616
0.324352 0.533429 0.039616
0.351315 0.533429 0.039616
0.377872 0.533429 0.039616
0.404095 0.533429 0.039616
0.430054 0.533429 0.039616
0.455820 0.533429 0.039616
0.481464 0.533429 0.039616
0.507057 0.533429 0.039616
0.532669 0.533429 0.039616
0.558372 0.533429 0.039616
0.584236 0.533429 0.039616
0.610332 0.533429 0.039616
0.636730 0.533429 0.039616
0.663502 0.533429 0.039616
0.690719 0.533429 0.039616
0.718450 0.533429 0.039616
0.746768 0.533429 0.039616
0.775742 0.533429 0.039616
0.805444 0.533429 0.039616
0.835944 0.533429 0.039616
0.867313 0.533429 0.039616
0.876191 0.533429 0.039616
0.876191 0.533429 0.039616
0.876191 0.533429 0.039616
0.052404 0.556941 0.039616
0.086180 0.556941 0.039616
0.118916 0.556941 0.039616
0.150680 0.556941 0.039616
0.181546 0.556941 0.039616
0.211582 0.556941 0.039616
0.240860 0.556941 0.039616
0.269452 0.556941 0.039616
0.297426 0.556941 0.039616
0.324856 0.556941 0.039616
0.351810 0.556941 0.039616
0.378360 0.556941 0.039616
0.404578 0.556941 0.039616
0.430533 0.556941 0.039616
0.456296 0.556941 0.039616
0.481938 0.556941 0.039616
0.507531 0.556941 0.039616
0.533144 0.556941 0.039616
0.558849 0.556941 0.039616
0.584717 0.556941 0.039616
0.610817 0.556941 0.039616
0.637222 0.556941 0.039616
0.664002 0.556941 0.039616
0.691227 0.556941 0.039616
0.718969 0.556941 0.039616
0.747298 0.556941 0.039616
0.776285 0.556941 0.039616
0.806001 0.556941 0.039616
0.836517 0.556941 0.039616
0.867903 0.556941 0.039616
0.876191 0.556941 0.039616
0.876191 0.556941 0.039616
0.876191 0.556941 0.039616
0.053039 0.580583 0.039616
0.086796 0.580583 0.039616
0.119512 0.580583 0.039616
0.151260 0.580583 0.039616
0.182109 0.580583 0.039616
0.212131 0.580583 0.039616
0.241396 0.580583 0.039616
0.269975 0.580583 0.039616
0.297939 0.580583 0.039616
0.325359 0.580583 0.039616
0.352305 0.580583 0.039616
0.378849 0.580583 0.039616
0.405061 0.580583 0.039616
0.431011 0.580583 0.039616
0.456772 0.580583 0.039616
0.482413 0.580583 0.039616
0.508005 0.580583 0.039616
0.533619 0.580583 0.039616
0.559327 0.580583 0.039616
0.585198 0.580583 0.039616
0.611303 0.580583 0.039616
0.637715 0.580583 0.039616
0.664502 0.580583 0.039616
0.691736 0.580583 0.039616
0.719488 0.580583 0.039616
0.747829 0.580583 0.039616
0.776829 0.580583 0.039616
0.806559 0.580583 0.039616
0.837090 0.580583 0.039616
0.868493 0.580583 0.039616
0.876191 0.580583 0.039616
0.876191 0.580583 0.039616
0.876191 0.580583 0.039616
0.053674 0.604412 0.039616
0.087411 0.604412 0.039616
0.120109 0.604412 0.039616
0.151839 0.604412 0.039616
0.182672 0.604412 0.039616
0.212680 0.604412 0.039616
0.241931 0.604412 0.039616
0.270498 0.604412 0.039616
0.298452 0.604412 0.039616
0.325862 0.604412 0.039616
0.352800 0.604412 0.039616
0.379337 0.604412 0.039616
0.405543 0.604412 0.039616
0.431490 0.604412 0.039616
0.457247 0.604412 0.039616
0.482887 0.604412 0.039616
0.508479 0.604412 0.039616
0.534094 0.604412 0.039616
0.559804 0.604412 0.039616
0.585679 0.604412 0.039616
0.611790 0.604412 0.039616
0.638207 0.604412 0.039616
0.665002 0.604412 0.039616
0.692245 0.604412 0.039616
0.720007 0.604412 0.039616
0.748359 0.604412 0.039616
0.777372 0.604412 0.039616
0.807117 0.604412 0.039616
0.837663 0.604412 0.039616
0.869083 0.604412 0.039616
0.876191 0.604412 0.039616
0.876191 0.604412 0.039616
0.876191 0.604412 0.039616
0.054309 0.628480 0.039616
0.088026 0.628480 0.039616
0.120705 0.628480 0.039616
0.152418 0.628480 0.039616
0.183235 0.628480 0.039616
0.213228 0.628480 0.039616
0.242466 0.628480 0.039616
0.271021 0.628480 0.039616
0.298964 0.628480 0.039616
0.326365 0.628480 0.039616
0.353295 0.628480 0.039616
0.379825 0.628480 0.039616
0.406026 0.628480 0.039616
0.431968 0.628480 0.039616
0.457723 0.628480 0.039616
0.483361 0.628480 0.039616
0.508953 0.628480 0.039616
0.534569 0.628480 0.039616
0.560281 0.628480 0.039616
0.586160 0.628480 0.039616
0.612276 0.628480 0.039616
0.638700 0.628480 0.039616
0.665502 0.628480 0.039616
0.692754 0.628480 0.039616
0.720527 0.628480 0.039616
0.748890 0.628480 0.039616
0.777916 0.628480 0.039616
0.807675 0.628480 0.039616
0.838237 0.628480 0.039616
0.869673 0.628480 0.039616
0.876191 0.628480 0.039616
0.876191 0.628480 0.039616
0.876191 0.628480 0.039616
0.054943 0.652843 0.039616
0.088640 0.652843 0.039616
0.121301 0.652843 0.039616
0.152997 0.652843 0.039616
0.183798 0.652843 0.039616
0.213776 0.652843 0.039616
0.243001 0.652843 0.039616
0.271544 0.652843 0.039616
0.299476 0.652843 0.039616
0.326868 0.652843 0.039616
0.353790 0.652843 0.039616
0.380313 0.652843 0.039616
0.406508 0.652843 0.039616
0.432447 0.652843 0.039616
0.458199 0.652843 0.039616
0.483835 0.652843 0.039616
0.509427 0.652843 0.039616
0.535044 0.652843 0.039616
0.560759 0.652843 0.039616
0.586641 0.652843 0.039616
0.612762 0.652843 0.039616
0.639192 0.652843 0.039616
0.666002 0.652843 0.039616
0.693264 0.652843 0.039616
0.721046 0.652843 0.039616
0.749422 0.652843 0.039616
0.778460 0.652843 0.039616
0.808233 0.652843 0.039616
0.838811 0.652843 0.039616
0.870264 0.652843 0.039616
0.876191 0.652843 0.039616
0.876191 0.652843 0.039616
0.876191 0.652843 0.039616
0.055577 0.677554 0.039616
0.089254 0.677554 0.039616
0.121897 0.677554 0.039616
0.153575 0.677554 0.039616
0.184361 0.677554 0.039616
0.214324 0.677554 0.039616
0.243536 0.677554 0.039616
0.272067 0.677554 0.039616
0.299988 0.677554 0.039616
0.327370 0.677554 0.039616
0.354284 0.677554 0.039616
0.380801 0.677554 0.039616
0.406991 0.677554 0.039616
0.432925 0.677554 0.039616
0.458674 0.677554 0.039616
0.484309 0.677554 0.039616
0.509901 0.677554 0.039616
0.535519 0.677554 0.039616
0.561237 0.677554 0.039616
0.587123 0.677554 0.039616
0.613249 0.677554 0.039616
0.639685 0.677554 0.039616
0.666503 0.677554 0.039616
0.693773 0.677554 0.039616
0.721566 0.677554 0.039616
0.749953 0.677554 0.039616
0.779005 0.677554 0.039616
0.808792 0.677554 0.039616
0.839385 0.677554 0.039616
0.870856 0.677554 0.039616
0.876191 0.677554 0.039616
0.876191 0.677554 0.039616
0.876191 0.677554 0.039616
0.039616 0.710691 0.039616
0.073796 0.710691 0.039616
0.106908 0.710691 0.039616
0.139024 0.710691 0.039616
0.170215 0.710691 0.039616
0.200550 0.710691 0.039616
0.230101 0.710691 0.039616
0.258938 0.710691 0.039616
0.287133 0.710691 0.039616
0.314756 0.710691 0.039616
0.341878 0.710691 0.039616
0.368570 0.710691 0.039616
0.394902 0.710691 0.039616
0.420946 0.710691 0.039616
0.446772 0.710691 0.039616
0.472451 0.710691 0.039616
0.498054 0.710691 0.039616
0.523651 0.710691 0.039616
0.549314 0.710691 0.039616
0.575113 0.710691 0.039616
0.601119 0.710691 0.039616
0.627403 0.710691 0.039616
0.654035 0.710691 0.039616
