public/luts/classic-negative.cube
# WISHES Classic Negative LUT (33x33x33)
# Generated for wishes.co.kr — 자체 작성, 상업 이용 자유
# Based on user-specified Fujifilm preset parameters
LUT_3D_SIZE 9
DOMAIN_MIN 0.0 0.0 0.0
DOMAIN_MAX 1.0 1.0 1.0
0.039616 0.039616 0.039616
0.170215 0.039616 0.039616
0.287133 0.039616 0.039616
0.394902 0.039616 0.039616
0.498054 0.039616 0.039616
0.601119 0.039616 0.039616
0.708629 0.039616 0.039616
0.825117 0.039616 0.039616
0.876191 0.039616 0.039616
0.039616 0.161065 0.039616
0.170215 0.161065 0.039616
0.287133 0.161065 0.039616
0.394902 0.161065 0.039616
0.498054 0.161065 0.039616
0.601119 0.161065 0.039616
0.708629 0.161065 0.039616
0.825117 0.161065 0.039616
0.876191 0.161065 0.039616
0.044750 0.267985 0.039616
0.174761 0.267985 0.039616
0.291259 0.267985 0.039616
0.398777 0.267985 0.039616
0.501844 0.267985 0.039616
0.604994 0.267985 0.039616
0.712756 0.267985 0.039616
0.829663 0.267985 0.039616
0.876191 0.267985 0.039616
0.047307 0.367981 0.039616
0.177027 0.367981 0.039616
0.293318 0.367981 0.039616
0.400712 0.367981 0.039616
0.503740 0.367981 0.039616
0.606933 0.367981 0.039616
0.714824 0.367981 0.039616
0.831943 0.367981 0.039616
0.876191 0.367981 0.039616
0.049859 0.463143 0.039616
0.179289 0.463143 0.039616
0.295374 0.463143 0.039616
0.402646 0.463143 0.039616
0.505635 0.463143 0.039616
0.608875 0.463143 0.039616
0.716895 0.463143 0.039616
0.834227 0.463143 0.039616
0.876191 0.463143 0.039616
0.052404 0.556941 0.039616
0.181546 0.556941 0.039616
0.297426 0.556941 0.039616
0.404578 0.556941 0.039616
0.507531 0.556941 0.039616
0.610817 0.556941 0.039616
0.718969 0.556941 0.039616
0.836517 0.556941 0.039616
0.876191 0.556941 0.039616
0.054943 0.652843 0.039616
0.183798 0.652843 0.039616
0.299476 0.652843 0.039616
0.406508 0.652843 0.039616
0.509427 0.652843 0.039616
0.612762 0.652843 0.039616
0.721046 0.652843 0.039616
0.838811 0.652843 0.039616
0.876191 0.652843 0.039616
0.039616 0.763316 0.039616
0.170215 0.763316 0.039616
0.287133 0.763316 0.039616
0.394902 0.763316 0.039616
0.498054 0.763316 0.039616
0.601119 0.763316 0.039616
0.708629 0.763316 0.039616
0.825117 0.763316 0.039616
0.876191 0.763316 0.039616
0.039616 0.876191 0.039616
0.170215 0.876191 0.039616
0.287133 0.876191 0.039616
0.394902 0.876191 0.039616
0.498054 0.876191 0.039616
0.601119 0.876191 0.039616
0.708629 0.876191 0.039616
0.825117 0.876191 0.039616
0.876191 0.876191 0.039616
0.039616 0.039616 0.157384
0.170215 0.039616 0.147197
0.287133 0.039616 0.147197
0.394902 0.039616 0.147197
0.498054 0.039616 0.147197
0.601119 0.039616 0.147197
0.708629 0.039616 0.147197
0.825117 0.039616 0.147197
0.876191 0.039616 0.147197
0.039616 0.161065 0.147197
0.174213 0.163095 0.146206
0.289927 0.137983 0.121032
0.396740 0.114164 0.096944
0.499083 0.090286 0.072731
0.601387 0.066057 0.048129
0.708629 0.057332 0.039616
0.825117 0.056946 0.039616
0.876191 0.056822 0.039616
0.039616 0.267985 0.144560
0.158746 0.270963 0.125172
0.294014 0.266226 0.120135
0.400583 0.244197 0.096052
0.502846 0.222579 0.071828
0.605233 0.200893 0.047208
0.712756 0.191312 0.039616
0.829663 0.188236 0.039616
0.876191 0.187332 0.039616
0.039616 0.367981 0.142177
0.139896 0.370045 0.103094
0.281011 0.370045 0.103094
0.402502 0.363637 0.095606
0.504727 0.343427 0.071376
0.607158 0.323424 0.046748
0.714824 0.312526 0.039616
0.831943 0.307248 0.039616
0.876191 0.305768 0.039616
0.039616 0.463143 0.139789
0.121266 0.464438 0.081017
0.264048 0.464438 0.081017
0.392700 0.464438 0.081017
0.506608 0.456333 0.070924
0.609085 0.437076 0.046287
0.716895 0.424587 0.039616
0.834227 0.417286 0.039616
0.876191 0.415342 0.039616
0.039616 0.556941 0.137396
0.102532 0.557534 0.058663
0.247254 0.557534 0.058663
0.376977 0.557534 0.058663
0.499176 0.557534 0.058663
0.611013 0.547502 0.045827
0.718969 0.532841 0.039616
0.836517 0.523363 0.039616
0.876191 0.520975 0.039616
0.039616 0.652843 0.134998
0.086892 0.652843 0.039616
0.232698 0.652843 0.039616
0.362901 0.652843 0.039616
0.484840 0.652843 0.039616
0.605854 0.652843 0.039616
0.721046 0.642607 0.039616
0.838811 0.630468 0.039616
0.876191 0.627590 0.039616
0.039616 0.763316 0.147197
0.068646 0.763316 0.039616
0.213124 0.763316 0.039616
0.341813 0.763316 0.039616
0.461493 0.763316 0.039616
0.578944 0.763316 0.039616
0.700949 0.763316 0.039616
0.825117 0.755412 0.039616
0.876191 0.750103 0.039616
0.039616 0.876191 0.147197
0.068140 0.876191 0.039616
0.210286 0.876191 0.039616
0.337058 0.876191 0.039616
0.454884 0.876191 0.039616
0.570193 0.876191 0.039616
0.689411 0.876191 0.039616
0.818966 0.876191 0.039616
0.876191 0.876191 0.039616
0.039616 0.039616 0.263785
0.170215 0.039616 0.263785
0.287133 0.039616 0.245138
0.394902 0.039616 0.245138
0.498054 0.039616 0.245138
0.601119 0.039616 0.245138
0.708629 0.039616 0.245138
0.825117 0.039616 0.245138
0.876191 0.039616 0.245138
0.039616 0.161065 0.263785
0.154441 0.143282 0.267424
0.290535 0.138236 0.240192
0.397312 0.114294 0.217612
0.499642 0.090354 0.195466
0.601958 0.066086 0.173237
0.708688 0.041364 0.150736
0.825117 0.039616 0.146714
0.876191 0.039616 0.145867
0.039616 0.267985 0.244661
0.159410 0.272197 0.244730
0.298455 0.270216 0.242392
0.404764 0.246648 0.218639
0.506946 0.224247 0.195879
0.609431 0.202084 0.173266
0.716649 0.179827 0.150497
0.833031 0.157318 0.127425
0.879349 0.148898 0.118786
0.039616 0.367981 0.242480
0.140306 0.371298 0.223694
0.284168 0.374284 0.225418
0.406680 0.367380 0.218213
0.508828 0.346089 0.195460
0.611360 0.325431 0.172846
0.718708 0.304956 0.150072
0.835301 0.284456 0.126995
0.879349 0.277213 0.118786
0.039616 0.463143 0.240294
0.121539 0.465746 0.203307
0.266270 0.468548 0.204434
0.396104 0.468548 0.204434
0.510709 0.459954 0.195041
0.613291 0.439849 0.172426
0.720769 0.420214 0.149648
0.837575 0.400784 0.126564
0.879349 0.394325 0.118786
0.039616 0.556941 0.238104
0.102714 0.558942 0.182970
0.248912 0.561665 0.183741
0.379588 0.561665 0.183741
0.502767 0.561665 0.183741
0.615223 0.551128 0.172007
0.722834 0.531344 0.149224
0.839854 0.512014 0.126133
0.879349 0.505991 0.118786
0.039616 0.652843 0.235910
0.083692 0.654288 0.162470
0.231708 0.657026 0.163008
0.363491 0.657026 0.163008
0.486847 0.657026 0.163008
0.609381 0.657026 0.163008
0.724902 0.644089 0.148799
0.842138 0.623859 0.125702
0.879349 0.617969 0.118786
0.039616 0.763316 0.245138
0.041467 0.763381 0.139829
0.194444 0.766980 0.140286
0.329446 0.766980 0.140286
0.454036 0.766980 0.140286
0.575770 0.766980 0.140286
0.702202 0.766980 0.140286
0.828506 0.755433 0.128286
0.879349 0.746515 0.118786
0.039616 0.876191 0.245138
0.039616 0.876191 0.136223
0.173907 0.879349 0.118786
0.310809 0.879349 0.118786
0.436246 0.879349 0.118786
0.557738 0.879349 0.118786
0.682805 0.879349 0.118786
0.818966 0.879349 0.118786
0.879349 0.879349 0.118786
0.039616 0.039616 0.362081
0.170215 0.039616 0.362081
0.287133 0.039616 0.362081
0.394902 0.039616 0.335890
0.498054 0.039616 0.335890
0.601119 0.039616 0.335890
0.708629 0.039616 0.335890
0.825117 0.039616 0.335890
0.876191 0.039616 0.335890
0.039616 0.161065 0.362081
0.133004 0.121715 0.364776
0.275217 0.121715 0.364776
0.397312 0.114294 0.327012
0.499642 0.090354 0.306288
0.601958 0.066086 0.285752
0.708688 0.041364 0.265148
0.825117 0.039616 0.258938
0.876191 0.039616 0.257278
0.039616 0.266626 0.362081
0.138794 0.252555 0.365356
0.283728 0.255334 0.369489
0.405790 0.247249 0.329946
0.507953 0.224657 0.308139
0.610463 0.202376 0.286939
0.717750 0.180040 0.265883
0.834245 0.157473 0.244757
0.880616 0.149035 0.236888
0.039616 0.367981 0.335221
0.140306 0.371298 0.333002
0.285815 0.376496 0.337628
0.410852 0.371115 0.332033
0.512929 0.348746 0.309508
0.615570 0.327435 0.287866
0.723205 0.306522 0.266509
0.840264 0.285705 0.245162
0.884519 0.278371 0.237623
0.039616 0.463143 0.333178
0.121539 0.465746 0.313793
0.267480 0.470789 0.317065
0.399503 0.472656 0.318274
0.514811 0.463573 0.309102
0.617504 0.442620 0.287469
0.725274 0.422419 0.266114
0.842549 0.402584 0.244765
0.884519 0.396015 0.237623
0.039616 0.556941 0.331133
0.102714 0.558942 0.294906
0.249853 0.564014 0.297362
0.382196 0.565800 0.298226
0.506358 0.565800 0.298226
0.619440 0.554757 0.287072
0.727345 0.534245 0.265719
0.844839 0.514397 0.244369
0.884519 0.508241 0.237623
0.039616 0.652843 0.329085
0.083692 0.654288 0.276051
0.232463 0.659573 0.277961
0.365571 0.661339 0.278597
0.489734 0.661339 0.278597
0.613245 0.661339 0.278597
0.729420 0.647855 0.265325
0.847133 0.626953 0.243973
0.884519 0.620900 0.237623
0.039616 0.763316 0.335890
0.041467 0.763381 0.255276
0.194847 0.769102 0.256765
0.331035 0.771654 0.257426
0.456294 0.771654 0.257426
0.578802 0.771654 0.257426
0.706255 0.771654 0.257426
0.833439 0.759657 0.246350
0.884519 0.750432 0.237623
0.039616 0.876191 0.335890
0.039616 0.876191 0.249769
0.174217 0.881696 0.237092
0.312118 0.884519 0.237623
0.438136 0.884519 0.237623
0.560284 0.884519 0.237623
0.686204 0.884519 0.237623
0.823538 0.884519 0.237623
0.884519 0.884519 0.237623
0.039616 0.039616 0.455535
0.170215 0.039616 0.455535
0.287133 0.039616 0.455535
0.394902 0.039616 0.455535
0.498054 0.039616 0.421906
0.601119 0.039616 0.421906
0.708629 0.039616 0.421906
0.825117 0.039616 0.421906
0.876191 0.039616 0.421906
0.039616 0.161065 0.455535
0.111781 0.100313 0.457450
0.255922 0.100313 0.457450
0.385429 0.100313 0.457450
0.499642 0.090354 0.409315
0.601958 0.066086 0.389729
0.708688 0.041364 0.370283
0.825117 0.039616 0.362095
0.876191 0.039616 0.359716
0.039616 0.265909 0.455535
0.117582 0.232876 0.458011
0.263411 0.234790 0.462013
0.393861 0.234790 0.462013
0.507953 0.224657 0.412157
0.610463 0.202376 0.391728
0.717750 0.180040 0.371713
0.834245 0.157473 0.351841
0.880616 0.149035 0.344486
0.039616 0.366577 0.455535
0.120438 0.353799 0.458104
0.266560 0.357595 0.463153
0.400072 0.360205 0.466629
0.514440 0.349723 0.415365
0.617122 0.328172 0.394092
0.724865 0.307097 0.373510
0.842098 0.286165 0.353230
0.886429 0.278797 0.346124
0.039616 0.463143 0.421049
0.121539 0.465746 0.416728
0.267480 0.470789 0.421171
0.402126 0.475829 0.425609
0.518914 0.467190 0.416969
0.621726 0.445390 0.395238
0.729793 0.424623 0.374345
0.847546 0.404383 0.353839
0.889715 0.397704 0.347045
0.039616 0.556941 0.419088
0.102714 0.558942 0.398608
0.249853 0.564014 0.402002
0.384268 0.569093 0.405392
0.509950 0.569940 0.405956
0.623666 0.558389 0.394846
0.731872 0.537147 0.373963
0.849846 0.516781 0.353461
0.889715 0.510491 0.347045
0.039616 0.652843 0.417127
0.083692 0.654288 0.380716
0.232463 0.659573 0.383412
0.367272 0.664876 0.386104
0.492620 0.665663 0.386503
0.617117 0.665663 0.386503
0.733955 0.651628 0.373581
0.852151 0.630052 0.353084
0.889715 0.623836 0.347045
0.039616 0.763316 0.421906
0.041467 0.763381 0.361081
0.194847 0.769102 0.363242
0.332118 0.774852 0.365402
0.458550 0.776347 0.365961
0.581837 0.776347 0.365961
0.710320 0.776347 0.365961
0.838394 0.763896 0.355351
0.889715 0.754362 0.347045
0.039616 0.876191 0.421906
0.039616 0.876191 0.353870
0.174217 0.881696 0.344791
0.313010 0.888059 0.346581
0.440026 0.889715 0.347045
0.562833 0.889715 0.347045
0.689612 0.889715 0.347045
0.828130 0.889715 0.347045
0.889715 0.889715 0.347045
0.039616 0.039616 0.547409
0.170215 0.039616 0.547409
0.287133 0.039616 0.547409
0.394902 0.039616 0.547409
0.498054 0.039616 0.547409
0.601119 0.039616 0.505635
0.708629 0.039616 0.505635
0.825117 0.039616 0.505635
0.876191 0.039616 0.505635
0.039616 0.161065 0.547409
0.090392 0.078720 0.548634
0.236789 0.078720 0.548634
0.367573 0.078720 0.548634
0.490247 0.078720 0.548634
0.601958 0.066086 0.489217
0.708688 0.041364 0.470168
0.825117 0.039616 0.459938
0.876191 0.039616 0.456840
0.039616 0.265481 0.547409
0.096247 0.213353 0.549196
0.243694 0.214745 0.553207
0.375126 0.214745 0.553207
0.498748 0.214745 0.553207
0.610463 0.202376 0.492030
0.717750 0.180040 0.472274
0.834245 0.157473 0.452889
0.880616 0.149035 0.445763
0.039616 0.365667 0.547409
0.099144 0.335594 0.549290
0.246708 0.338473 0.554351
0.380425 0.340453 0.557840
0.505101 0.340453 0.557840
0.617122 0.328172 0.495208
0.724865 0.307097 0.474743
0.842098 0.286165 0.454850
0.886429 0.278797 0.447935
0.039616 0.461724 0.547409
0.102035 0.449479 0.549384
0.249297 0.453441 0.554444
0.383852 0.457401 0.559511
0.520929 0.468965 0.520929
0.623802 0.446749 0.498355
0.732018 0.425704 0.477189
0.850007 0.405266 0.456795
0.892274 0.398532 0.450106
0.039616 0.556941 0.504578
0.102714 0.558942 0.498154
0.249853 0.564014 0.502537
0.384268 0.569093 0.506921
0.513542 0.574085 0.511224
0.627901 0.562024 0.499547
0.736415 0.540051 0.478078
0.854876 0.519165 0.457465
0.894935 0.512742 0.451090
0.039616 0.652843 0.502643
0.083692 0.654288 0.480523
0.232463 0.659573 0.484027
0.367272 0.664876 0.487530
0.495507 0.669998 0.490903
0.620995 0.669998 0.490903
0.738505 0.655410 0.477690
0.857192 0.633155 0.457089
0.894935 0.626775 0.451090
0.039616 0.763316 0.505635
0.041467 0.763381 0.461274
0.194847 0.769102 0.464109
0.332118 0.774852 0.466942
0.460601 0.780629 0.469775
0.584875 0.781058 0.469985
0.714397 0.781058 0.469985
0.843371 0.768150 0.459349
0.894935 0.758304 0.451090
0.039616 0.876191 0.505635
0.039616 0.876191 0.452312
0.174217 0.881696 0.446168
0.313010 0.888059 0.448542
0.441742 0.894460 0.450915
0.565382 0.894935 0.451090
0.693028 0.894935 0.451090
0.832740 0.894935 0.451090
0.894935 0.894935 0.451090
0.039616 0.039616 0.640967
0.170215 0.039616 0.640967
0.287133 0.039616 0.640967
0.394902 0.039616 0.640967
0.498054 0.039616 0.640967
0.601119 0.039616 0.589531
0.708629 0.039616 0.589531
0.825117 0.039616 0.589531
0.876191 0.039616 0.589531
0.039616 0.161065 0.640967
0.068699 0.056804 0.641520
0.217585 0.056804 0.641520
0.349872 0.056804 0.641520
0.473027 0.056804 0.641520
0.601958 0.066086 0.588263
0.708688 0.041364 0.568832
0.825117 0.039616 0.556219
0.876191 0.039616 0.552308
0.039616 0.265196 0.640967
0.074631 0.193744 0.642102
0.224127 0.194783 0.646261
0.356857 0.194783 0.646261
0.480723 0.194783 0.646261
0.610463 0.202376 0.591998
0.717750 0.180040 0.571684
0.834245 0.157473 0.551990
0.880616 0.149035 0.544805
0.039616 0.365064 0.640967
0.077577 0.317525 0.642199
0.227064 0.319791 0.647449
0.361556 0.321350 0.651074
0.486252 0.321350 0.651074
0.617122 0.328172 0.596120
0.724865 0.307097 0.574911
0.842098 0.286165 0.554583
0.886429 0.278797 0.547574
0.039616 0.460679 0.640967
0.080515 0.432094 0.642296
0.229676 0.435258 0.647546
0.364771 0.438419 0.652811
0.491816 0.440267 0.655899
0.623802 0.446749 0.600210
0.732018 0.425704 0.578115
0.850007 0.405266 0.557157
0.892274 0.398532 0.550345
0.039616 0.555490 0.640967
0.083446 0.543189 0.642394
0.232284 0.547352 0.647643
0.367187 0.551518 0.652908
0.495676 0.555688 0.658190
0.630504 0.564257 0.604268
0.739211 0.541833 0.581296
0.857974 0.520628 0.559713
0.898152 0.514123 0.553117
0.039616 0.652843 0.588241
0.083692 0.654288 0.579529
0.232463 0.659573 0.583974
0.367272 0.664876 0.588425
0.495638 0.670196 0.592884
0.624880 0.674345 0.596356
0.743072 0.659200 0.582113
0.862256 0.636264 0.560330
0.900182 0.629719 0.554071
0.039616 0.763316 0.589531
0.041467 0.763381 0.559883
0.194847 0.769102 0.563485
0.332118 0.774852 0.567090
0.460601 0.780629 0.570699
0.587916 0.785788 0.573910
0.718486 0.785788 0.573910
0.848372 0.772419 0.562698
0.900182 0.762259 0.554071
0.039616 0.876191 0.589531
0.039616 0.876191 0.548884
0.174217 0.881696 0.545321
0.313010 0.888059 0.548348
0.441742 0.894460 0.551377
0.567934 0.900182 0.554071
0.696451 0.900182 0.554071
0.837370 0.900182 0.554071
0.900182 0.900182 0.554071
0.039616 0.039616 0.739471
0.170215 0.039616 0.739471
0.287133 0.039616 0.739471
0.394902 0.039616 0.739471
0.498054 0.039616 0.739471
0.601119 0.039616 0.739471
0.708629 0.039616 0.676043
0.825117 0.039616 0.676043
0.876191 0.039616 0.676043
0.039616 0.161065 0.739471
0.051622 0.039616 0.739471
0.201750 0.039616 0.739471
0.334671 0.039616 0.739471
0.457703 0.039616 0.739471
0.578161 0.039616 0.739471
0.708688 0.041364 0.670305
0.825117 0.039616 0.654690
0.876191 0.039616 0.649782
0.039616 0.264994 0.739471
0.052656 0.173932 0.739919
0.204504 0.174716 0.744366
0.338772 0.174716 0.744366
0.463139 0.174716 0.744366
0.585205 0.174716 0.744366
0.717750 0.180040 0.674061
0.834245 0.157473 0.653238
0.880616 0.149035 0.645695
0.039616 0.364634 0.739471
0.055655 0.299435 0.740023
0.207399 0.301262 0.745637
0.343051 0.302519 0.749518
0.468086 0.302519 0.749518
0.591100 0.302519 0.749518
0.724865 0.307097 0.678225
0.842098 0.286165 0.656596
0.886429 0.278797 0.649199
0.039616 0.459935 0.739471
0.058647 0.414875 0.740127
0.210042 0.417470 0.745741
0.346124 0.420063 0.751380
0.473062 0.421580 0.754692
0.597040 0.421580 0.754692
0.732018 0.425704 0.682368
0.850007 0.405266 0.659937
0.892274 0.398532 0.652710
0.039616 0.554317 0.739471
0.061631 0.525968 0.740230
0.212679 0.529397 0.745845
0.348545 0.532827 0.751485
0.476636 0.536259 0.757151
0.603027 0.537912 0.759888
0.739211 0.541833 0.686489
0.857974 0.520628 0.663261
0.898152 0.514123 0.656228
0.039616 0.651326 0.739471
0.064607 0.638437 0.740334
0.215312 0.642900 0.745949
0.350964 0.647375 0.751590
0.478986 0.651861 0.757256
0.607540 0.656359 0.762949
0.746445 0.661997 0.690589
0.866001 0.638556 0.666567
0.904062 0.631890 0.659753
0.039616 0.763316 0.676043
0.041467 0.763381 0.660937
0.194847 0.769102 0.665492
0.332118 0.774852 0.670059
0.460601 0.780629 0.674639
0.588331 0.786435 0.679233
0.722588 0.790538 0.682474
0.853395 0.776703 0.670049
0.905454 0.766227 0.660582
0.039616 0.876191 0.676043
0.039616 0.876191 0.647374
0.174217 0.881696 0.646347
0.313010 0.888059 0.650179
0.441742 0.894460 0.654019
0.568282 0.900899 0.657868
0.699883 0.905454 0.660582
0.842020 0.905454 0.660582
0.905454 0.905454 0.660582
0.039616 0.039616 0.846185
0.170215 0.039616 0.846185
0.287133 0.039616 0.846185
0.394902 0.039616 0.846185
0.498054 0.039616 0.846185
0.601119 0.039616 0.846185
0.708629 0.039616 0.846185
0.825117 0.039616 0.767623
0.876191 0.039616 0.767623
0.039616 0.161065 0.846185
0.051369 0.039616 0.846185
0.198553 0.039616 0.846185
0.329093 0.039616 0.846185
0.449849 0.039616 0.846185
0.567683 0.039616 0.846185
0.689455 0.039616 0.846185
0.825117 0.039616 0.759102
0.876191 0.039616 0.752919
0.039616 0.264842 0.846185
0.039616 0.161150 0.846185
0.184714 0.154441 0.850711
0.320720 0.154441 0.850711
0.445800 0.154441 0.850711
0.567511 0.154441 0.850711
0.693413 0.154441 0.850711
0.834245 0.157473 0.760724
0.880616 0.149035 0.752517
0.039616 0.364313 0.846185
0.039616 0.284947 0.846185
0.187590 0.282732 0.852105
0.324692 0.283761 0.856365
0.450317 0.283761 0.856365
0.572815 0.283761 0.856365
0.699886 0.283761 0.856365
0.842098 0.286165 0.765061
0.886429 0.278797 0.756968
0.039616 0.459380 0.846185
0.039616 0.399155 0.846185
0.190269 0.399882 0.852219
0.327667 0.402050 0.858409
0.454858 0.403317 0.862048
0.578155 0.403317 0.862048
0.706420 0.403317 0.862048
0.850007 0.405266 0.769384
0.892274 0.398532 0.761435
0.039616 0.553442 0.846185
0.039616 0.509041 0.846185
0.192941 0.511859 0.852333
0.330101 0.514742 0.858524
0.458224 0.517626 0.864751
0.583533 0.519014 0.867762
0.713015 0.519014 0.867762
0.857974 0.520628 0.773693
0.898152 0.514123 0.765919
0.039616 0.650007 0.846185
0.042453 0.620732 0.846291
0.195609 0.624485 0.852448
0.332532 0.628245 0.858639
0.460561 0.632012 0.864867
0.587672 0.635787 0.871130
0.719673 0.637214 0.873506
0.866001 0.638556 0.777988
0.904062 0.631890 0.770419
0.039616 0.763316 0.846185
0.039616 0.750424 0.846185
0.179521 0.753546 0.851762
0.317897 0.758577 0.857950
0.446532 0.763628 0.864173
0.573331 0.768701 0.870432
0.706861 0.773795 0.876728
0.858212 0.780808 0.786164
0.910511 0.770026 0.775321
0.039616 0.876191 0.767623
0.039616 0.876191 0.751568
0.174217 0.881696 0.753345
0.313010 0.888059 0.758214
0.441742 0.894460 0.763103
0.568282 0.900899 0.768012
0.701133 0.907378 0.772941
0.846689 0.910753 0.775505
0.910753 0.910753 0.775505
